X: 4
T: The Connaught Heifers
R: reel
M: 4/4
L: 1/8
K: Dmix
M: 7/8
F2 FG ABG | A2 AG AGE | F2 FG AGF | DG G2 cAG |
F2 FG ABG | A2 AG AGE | F2 DE FGA | G2 EG cAG ||
f2 ef dec | A2 BG ABd | f2 ef dec | AG G2 eag |
f2 ef dec | A2 BG ABd | fd ec dBc | AG BG AGE ||


Tune 970	Setting 20984

